material/.icons/material/cellphone-link-off.svg

<svg xmlns="http://www.w3.org/2000/svg" viewBox="0 0 24 24"><path d="M23 8h-6a1 1 0 00-1 1v4.18l2 2V10h4v7h-2.18l3 3H23a1 1 0 001-1V9a1 1 0 00-1-1M4 6.27L14.73 17H4V6.27M1.92 1.65L.65 2.92l1.82 1.82A1.9 1.9 0 002 6v11H0v3h17.73l2.35 2.35 1.27-1.27L3.89 3.62 1.92 1.65M22 6V4H6.82l2 2H22z"/></svg>

<?xml version="1.0" encoding="UTF-8"?><!DOCTYPE svg PUBLIC "-//W3C//DTD SVG 1.1//EN" "http://www.w3.org/Graphics/SVG/1.1/DTD/svg11.dtd"><svg xmlns="http://www.w3.org/2000/svg" xmlns:xlink="http://www.w3.org/1999/xlink" version="1.1" id="mdi-cellphone-link-off" width="24" height="24" viewBox="0 0 24 24"><path d="M23,8H17A1,1 0 0,0 16,9V13.18L18,15.18V10H22V17H19.82L22.82,20H23A1,1 0 0,0 24,19V9A1,1 0 0,0 23,8M4,6.27L14.73,17H4V6.27M1.92,1.65L0.65,2.92L2.47,4.74C2.18,5.08 2,5.5 2,6V17H0V20H17.73L20.08,22.35L21.35,21.08L3.89,3.62L1.92,1.65M22,6V4H6.82L8.82,6H22Z" /></svg>
